X:1
T:The  Garden in Winter
C:andy hornby 2006
I:abc2nwc
M:C
L:1/8
K:C
E2AB c2A2|B2c2B3d|edcB A2c2|dcBA ^G3E|
A2Bc B2cd|^G2AB c2de|[1fedc BA^GF|
E4EFAF:|[2fedc B/2c/2B/2c/2 B3/2A/2|A6cd
|:e2cd efec|d2Bc d3e|c2AB cd cA|BA^GF E3E|
A2Bc d2ef|^G2AB c2de|[1fedc dcBA|
^G4-GEFE:|[2fedc B/2c/2B/2c/2 B3/2A/2|A8|]
%%newpage
%%vskip 2cm
